X: 24
T: En soustenant vostre querelle
N: Derived from Bus3017-En_soustenant_vostre_querelle.krn
C: Antoine Busnoys
%%abc-version 2.0
%%abcx-abcm2ps-target-version 5.9.1 (29 Sep 2008)
%%abc-creator hum2abc beta
%%abcx-conversion-date 2019/02/16 20:26:07
%%abc-edited-by Jesse Rodin
%%abc-edited-by Chris Gage 02-10-2015
%%abcx-initial-encoding-date 2015/02/20/
%%humdrum-veritas 4015523061
%%humdrum-veritas-data 195387537
%%linebreak <none>
%%barnumbers 0
L: 1/4
M: 2/1
Q: 1/2=120
V: 1 clef=treble
V: 2 clef=treble-8
V: 3 clef=bass
K: C
[V:1] D8 | 
[V:2] d8- | 
[V:3] D,8- | 
[V:1] F4G4 | 
[V:2] d4B4 | 
[V:3] D,4E,4 | 
[V:1] A4G2F2 | 
[V:2] A4d4- | 
[V:3] F,4G,4 | 
[V:1] E8 | 
[V:2] d4^c4 | 
[V:3] A,8 | 
[V:1] D4B,4 | 
[V:2] d8 | 
[V:3] _B,4G,4 | 
[V:1] C4D4- | 
[V:2] e4f4- | 
[V:3] E,4D,4- | 
[V:1] D4F4 | 
[V:2] f2d2d4- | 
[V:3] D,8 | 
[V:1] E8 | 
[V:2] d2^c2^c2B2 | 
[V:3] A,8 | 
[V:1] D8 | 
[V:2] d8- | 
[V:3] D,8 | 
[V:1] z4A4 | 
[V:2] d8 | 
[V:3] F,6E,2 | 
[V:1] A4B4 | 
[V:2] z4d4 | 
[V:3] C,4D,4 | 
[V:1] c6BA | 
[V:2] e4e4 | 
[V:3] A,,6B,,2 | 
[V:1] G4A4 | 
[V:2] e4c4 | 
[V:3] C,8 | 
[V:1] B8 | 
[V:2] d6cB | 
[V:3] z4G,4 | 
[V:1] c6B2- | 
[V:2] A4e4- | 
[V:3] A,4E,4 | 
[V:1] B2A2A4- | 
[V:2] e4c4 | 
[V:3] G,4A,4 | 
[V:1] A2^F2^G4 | 
[V:2] B8 | 
[V:3] E,8 | 
[V:1] A8 | 
[V:2] A8- | 
[V:3] F,8 | 
[V:1] z4A4 | 
[V:2] A8 | 
[V:3] D,8 | 
[V:1] G2E2F4 | 
[V:2] z4A4 | 
[V:3] E,4D,4 | 
[V:1] E4z2A2- | 
[V:2] G2E2F4 | 
[V:3] z4D,4 | 
[V:1] A2G2A2c2 | 
[V:2] E4z2A2- | 
[V:3] C,4A,,4 | 
[V:1] B4A2A2- | 
[V:2] A2G2A2c2 | 
[V:3] E,4F,4 | 
[V:1] A2G2A4- | 
[V:2] B4A4- | 
[V:3] G,4D,2F,2- | 
[V:1] A2B2A2GF | 
[V:2] A2G2A2B2 | 
[V:3] F,2E,2F,2G,2 | 
[V:1] E4G4- | 
[V:2] c6BA | 
[V:3] A,4E,4- | 
[V:1] G2F2E2D2 | 
[V:2] G8- | 
[V:3] E,4C,4- | 
[V:1] E4D4- | 
[V:2] G4F4 | 
[V:3] C,4D,4 | 
[V:1] D4^C4 | 
[V:2] E8 | 
[V:3] A,,8 | 
[V:1] D8 | 
[V:2] D8- | 
[V:3] z4D,4 | 
[V:1] z4D4 | 
[V:2] D8 | 
[V:3] F,6G,2 | 
[V:1] F4G4 | 
[V:2] z8 | 
[V:3] A,4_B,4 | 
[V:1] A8 | 
[V:2] D4F4 | 
[V:3] A,8 | 
[V:1] B4c4- | 
[V:2] G4A4- | 
[V:3] z4F,4- | 
[V:1] c2BAG4- | 
[V:2] A4B4 | 
[V:3] F,4E,4- | 
[V:1] G4c4- | 
[V:2] c4A4 | 
[V:3] E,4F,4 | 
[V:1] c4B4 | 
[V:2] G8 | 
[V:3] E,6D,2 | 
[V:1] A6GF | 
[V:2] F4c4- | 
[V:3] F,6G,2 | 
[V:1] E4F4- | 
[V:2] c2Bcd2cB | 
[V:3] A,4D,4- | 
[V:1] F2G2A4- | 
[V:2] A4F4- | 
[V:3] D,8 | 
[V:1] A2_B2A2GF | 
[V:2] F4A4 | 
[V:3] F,8 | 
[V:1] E6D2 | 
[V:2] G8 | 
[V:3] C,8 | 
[V:1] F8 | 
[V:2] F8- | 
[V:3] C8 | 
[V:1] z4A4- | 
[V:2] F4D4 | 
[V:3] A,4D4- | 
[V:1] A4G4 | 
[V:2] E8 | 
[V:3] D2B,2^C4 | 
[V:1] F4E2D2 | 
[V:2] D8 | 
[V:3] D6CB, | 
[V:1] C4F4 | 
[V:2] z4A4 | 
[V:3] A,8 | 
[V:1] G4A4- | 
[V:2] B4c4 | 
[V:3] z4F,4- | 
[V:1] A4F4 | 
[V:2] A4d4- | 
[V:3] F,4D,4 | 
[V:1] E8 | 
[V:2] d2^c2^c2B2 | 
[V:3] A,8 | 
[V:1] D4C2A,2 | 
[V:2] d4z4 | 
[V:3] _B,4A,2A,2- | 
[V:1] B,4A,4 | 
[V:2] d4c2A2 | 
[V:3] A,2G,2A,2F,2 | 
[V:1] D6C2 | 
[V:2] B4A4 | 
[V:3] G,4A,4 | 
[V:1] F2G2A4- | 
[V:2] d6c2 | 
[V:3] D,8- | 
[V:1] A2B2c4- | 
[V:2] f6e2 | 
[V:3] D,4A,4- | 
[V:1] c2B2B4- | 
[V:2] c4d4- | 
[V:3] A,4G,4- | 
[V:1] B2A2A4- | 
[V:2] d2c2B2A2 | 
[V:3] G,4F,4 | 
[V:1] A2^G2G2^F2 | 
[V:2] B8 | 
[V:3] E,8 | 
[V:1] A8 |]  
[V:2] A8 |]  
[V:3] A,,8 |]  



